brandFactory_export/1.Light/Bicicleta_Bike_1Light.svg

<?xml version="1.0" encoding="UTF-8"?>
<svg width="24px" height="24px" viewBox="0 0 24 24" version="1.1" xmlns="http://www.w3.org/2000/svg" xmlns:xlink="http://www.w3.org/1999/xlink">
    <title>1.Light/Bicicleta_Bike_1Light</title>
    <g id="Symbols" stroke="none" stroke-width="1" fill="none" fill-rule="evenodd">
        <g id="1.Light/Bicicleta_Bike_1Light" fill="#5CB615" fill-rule="nonzero">
            <path d="M19.287395,19.687395 C17.0420168,19.687395 15.9529412,18.5445378 15.9529412,16.1983193 C15.9529412,14.7361345 16.3764706,13.7445378 17.2369748,13.2 L18.8201681,16.4168067 C18.907563,16.5983193 19.0857143,16.6991597 19.2638655,16.6991597 C19.3445378,16.6991597 19.4218487,16.6789916 19.492437,16.6420168 C19.7411765,16.5042017 19.8352941,16.1915966 19.707563,15.9394958 L18.1815126,12.8403361 C18.5176471,12.7630252 18.8739496,12.712605 19.287395,12.712605 C21.5327731,12.712605 22.6252101,13.8554622 22.6252101,16.2016807 C22.6218487,18.5445378 21.5294118,19.687395 19.287395,19.687395 Z M11.6840336,14.4806723 C11.6067227,14.4806723 11.5394958,14.4907563 11.4689076,14.497479 L8.88739496,8.97815126 L14.6386555,8.97815126 L11.902521,14.497479 C11.8319328,14.4907563 11.7647059,14.4773109 11.6840336,14.4806723 Z M11.6840336,17.189916 C11.112605,17.189916 10.8907563,16.9579832 10.8907563,16.3563025 C10.8907563,15.7579832 11.112605,15.5226891 11.6840336,15.5226891 C12.2588235,15.5226891 12.4806723,15.7579832 12.4806723,16.3563025 C12.4806723,16.9579832 12.2588235,17.189916 11.6840336,17.189916 Z M4.33613445,19.687395 C2.0907563,19.687395 1.00168067,18.5445378 1.00168067,16.1983193 C1.00168067,13.8521008 2.0907563,12.7092437 4.33613445,12.7092437 C4.72268908,12.7092437 5.06890756,12.7563025 5.38823529,12.8268908 L3.86554622,15.9428571 C3.78487395,16.1042017 3.79495798,16.2957983 3.88571429,16.4537815 C3.97310924,16.6084034 4.13445378,16.702521 4.31260504,16.702521 L7.64369748,16.702521 C7.48571429,18.6991597 6.41008403,19.687395 4.33613445,19.687395 L4.33613445,19.687395 Z M7.64033613,15.6571429 L5.12941176,15.6571429 L6.3394958,13.1764706 C7.11596639,13.6436975 7.5394958,14.4705882 7.64033613,15.6571429 Z M8.07058824,9.62352941 L10.5176471,14.8537815 C10.2621849,15.0621849 10.0773109,15.3411765 9.98655462,15.6605042 L8.63529412,15.6605042 C8.51764706,14.0537815 7.88571429,12.8941176 6.78655462,12.2588235 L8.07058824,9.62352941 Z M19.2840336,11.6638655 C18.6991597,11.6638655 18.1815126,11.7478992 17.7109244,11.8890756 L15.9596639,8.33277311 L15.9596639,5.07226891 C16.4268908,5.02184874 17.1193277,5.02521008 17.4823529,5.33109244 C17.5932773,5.42521008 17.7411765,5.59327731 17.7411765,6 C17.7344538,6.28235294 17.9596639,6.51428571 18.2420168,6.5210084 C18.5243697,6.51428571 18.7462185,6.28235294 18.7428571,6 C18.7428571,5.21008403 18.4,4.75630252 18.1109244,4.51428571 C17.1663866,3.7210084 15.5394958,4.07058824 15.3546218,4.11428571 C15.1226891,4.17478992 14.9613445,4.38655462 14.9647059,4.62521008 L14.9647059,7.93613445 L8.39663866,7.93613445 L7.5092437,6.04369748 L8.66218487,6.04369748 C8.94453782,6.03697479 9.1697479,5.80168067 9.16302521,5.52268908 C9.1697479,5.24033613 8.94453782,5.00504202 8.66218487,5.00168067 L5.31092437,5.00168067 C5.02857143,5.00840336 4.80672269,5.24033613 4.81008403,5.52268908 C4.80336134,5.80504202 5.02857143,6.04033613 5.31092437,6.04705882 L6.39663866,6.04705882 L7.51932773,8.45042017 L5.84537815,11.8789916 C5.3512605,11.7378151 4.84369748,11.6672269 4.32941176,11.6705882 C1.5394958,11.6638655 0,13.2739496 0,16.1983193 C0,19.1226891 1.5394958,20.7327731 4.33613445,20.7327731 C6.96470588,20.7327731 8.46386555,19.297479 8.63865546,16.702521 L9.91596639,16.702521 C10.0235294,17.5529412 10.5344538,18.0907563 11.3445378,18.2084034 L12.1613445,19.9226891 C12.2453782,20.1008403 12.4201681,20.2117647 12.6084034,20.2117647 L13.6,20.2117647 C13.8823529,20.205042 14.107563,19.9697479 14.1008403,19.6907563 C14.107563,19.4084034 13.8823529,19.1731092 13.6,19.1663866 L12.9176471,19.1663866 L12.4168067,18.1176471 C13.0957983,17.8722689 13.4823529,17.2537815 13.4823529,16.3596639 C13.4823529,15.687395 13.2571429,15.1731092 12.8537815,14.8571429 L15.4621849,9.6 L16.7831933,12.2823529 C15.5932773,13.0016807 14.9512605,14.3260504 14.9512605,16.2016807 C14.9512605,19.1260504 16.4907563,20.7361345 19.287395,20.7361345 C22.0840336,20.7361345 23.6235294,19.1260504 23.6235294,16.2016807 C23.6235294,13.2773109 22.0840336,11.6638655 19.2840336,11.6638655 Z" id="Bicicleta_Bike_1Light"></path>
        </g>
    </g>
</svg>

<svg width="24" height="24" viewBox="0 0 24 24" xmlns="http://www.w3.org/2000/svg"><path d="M19.287 19.687c-2.245 0-3.334-1.142-3.334-3.489 0-1.462.423-2.453 1.284-2.998l1.583 3.217a.494.494 0 00.672.225.531.531 0 00.216-.703l-1.526-3.099a4.828 4.828 0 011.105-.127c2.246 0 3.338 1.142 3.338 3.489-.003 2.343-1.096 3.485-3.338 3.485zm-7.603-5.206c-.077 0-.145.01-.215.016L8.887 8.978h5.752l-2.736 5.52c-.071-.007-.138-.02-.219-.017zm0 2.709c-.571 0-.793-.232-.793-.834 0-.598.222-.833.793-.833.575 0 .797.235.797.833 0 .602-.222.834-.797.834zm-7.348 2.497c-2.245 0-3.334-1.142-3.334-3.489 0-2.346 1.089-3.489 3.334-3.489.387 0 .733.047 1.052.118l-1.522 3.116a.54.54 0 00.02.51.487.487 0 00.427.25h3.33c-.157 1.996-1.233 2.984-3.307 2.984zm3.304-4.03H5.13l1.21-2.48c.776.467 1.2 1.294 1.3 2.48zm.43-6.033l2.448 5.23c-.256.208-.44.487-.531.807H8.635c-.117-1.607-.75-2.767-1.848-3.402L8.07 9.624zm11.214 2.04c-.585 0-1.102.084-1.573.225L15.96 8.333v-3.26c.467-.051 1.16-.048 1.522.258.111.094.26.262.26.669a.51.51 0 00.5.521.513.513 0 00.5-.521c0-.79-.342-1.244-.631-1.486-.945-.793-2.572-.443-2.756-.4a.522.522 0 00-.39.511v3.311H8.397l-.888-1.892h1.153a.513.513 0 00.501-.521.509.509 0 00-.5-.521H5.31a.513.513 0 00-.5.52.514.514 0 00.5.525h1.086L7.519 8.45 5.845 11.88a5.376 5.376 0 00-1.516-.208C1.54 11.664 0 13.274 0 16.198c0 2.925 1.54 4.535 4.336 4.535 2.629 0 4.128-1.436 4.303-4.03h1.277c.108.85.618 1.388 1.429 1.505l.816 1.715c.084.178.26.289.447.289h.992a.513.513 0 00.5-.521.514.514 0 00-.5-.525h-.682l-.501-1.048c.679-.246 1.065-.864 1.065-1.758 0-.673-.225-1.187-.628-1.503L15.462 9.6l1.321 2.682c-1.19.72-1.832 2.044-1.832 3.92 0 2.924 1.54 4.534 4.336 4.534 2.797 0 4.337-1.61 4.337-4.534 0-2.925-1.54-4.538-4.34-4.538z" fill="#5CB615" fill-rule="nonzero"/></svg>
